teeny/solid/flag.svg

<svg width="15" height="15" viewBox="0 0 15 15" fill="none" xmlns="http://www.w3.org/2000/svg">
<path d="M0 0.5C0 0.223858 0.223858 0 0.5 0H14.5C14.6693 0 14.827 0.0856253 14.9192 0.227543C15.0115 0.369461 15.0256 0.548403 14.9569 0.703069L13.0472 5L14.9569 9.29693C15.0256 9.4516 15.0115 9.63054 14.9192 9.77246C14.827 9.91437 14.6693 10 14.5 10H1V15H0V0.5Z" fill="black"/>
</svg>

<svg viewBox="0 0 15 15" xmlns="http://www.w3.org/2000/svg"><path d="M0 .5C0 .22.22 0 .5 0h14c.16 0 .32.08.41.22 .09.14.1.32.03.47l-1.91 4.29 1.9 4.29c.06.15.05.33-.04.47 -.1.14-.25.22-.42.22H.97v5h-1V.46Z"/></svg>
